icons/desktop/12/svg/vpn-on-12.svg

<svg width="12" height="12" viewBox="0 0 12 12" fill="none" xmlns="http://www.w3.org/2000/svg">
<g clip-path="url(#clip0_13802_57469)">
<path fill-rule="evenodd" clip-rule="evenodd" d="M6 0C9.309 0 12 2.691 12 6C12 9.309 9.309 12 6 12C2.691 12 0 9.309 0 6C0 2.691 2.691 0 6 0ZM8.81738 4.20801C8.57338 3.96401 8.17662 3.96401 7.93262 4.20801L5.39844 6.75098L4.06738 5.41992C3.82339 5.17598 3.42661 5.17598 3.18262 5.41992C2.9388 5.66392 2.93872 6.06074 3.18262 6.30469L4.51367 7.63574C4.74755 7.87052 5.06081 7.99988 5.39355 8C5.72647 8 6.04043 7.87063 6.27441 7.63574L8.81738 5.09277C9.06132 4.84883 9.06121 4.45202 8.81738 4.20801Z" fill="black"/>
</g>
<defs>
<clipPath id="clip0_13802_57469">
<rect width="12" height="12" fill="white"/>
</clipPath>
</defs>
</svg>

<!-- This Source Code Form is subject to the terms of the Mozilla Public
   - License, v. 2.0. If a copy of the MPL was not distributed with this
   - file, You can obtain one at http://mozilla.org/MPL/2.0/. -->
<svg xmlns="http://www.w3.org/2000/svg" width="12" height="12" fill="context-fill" fill-opacity="context-fill-opacity" viewBox="0 0 12 12">
    <g clip-path="url(#clip0_13802_57469)">
        <path fill-rule="evenodd" d="M6 0c3.309 0 6 2.691 6 6s-2.691 6-6 6-6-2.691-6-6 2.691-6 6-6m2.817 4.208a.626.626 0 0 0-.884 0L5.398 6.751 4.068 5.42a.626.626 0 0 0-.885.885l1.33 1.33c.235.236.548.365.88.365.333 0 .647-.13.881-.364l2.543-2.543a.626.626 0 0 0 0-.885" clip-rule="evenodd" />
    </g>
</svg>
